!!!COM: Dering, Richard
!!!CDT:
!!!PTL: Canzonette a quattro voci con il basso continuo
!!!PPP: Antwerp
!!!PPR: Pierre Phalèse
!!!PDT: 1620
!!!PUB-format:
!!!RISM: 1620-16
!!!rime: 59
!!!OTL: Lunge da voi, ben mio
!!!AGN: Madrigal
!!!SCT: Trm0059e
!!!SCA: Trm0059e
!!!original-voices: 4+bc
!!!extant-voices: 4+bc
!!!complete: Y
!!!final: G
**kern	**fb	**kern	**text	**kern	**text	**kern	**text	**kern	**text
*part5	*	*part4	*part4	*part3	*part3	*part2	*part2	*part1	*part1
*staff5	*	*staff4	*staff4	*staff3	*staff3	*staff2	*staff2	*staff1	*staff1
*	*	*I"Basso	*	*I"Alto	*	*I"Canto II	*	*I"Canto	*
*	*	*I'B	*	*I'A	*	*I'C2	*	*I'C	*
*oclefC4	*	*oclefC4	*	*oclefC2	*	*oclefG2	*	*oclefG2	*
*clefF4	*	*clefGv2	*	*clefG2	*	*clefG2	*	*clefG2	*
*k[]	*	*k[]	*	*k[]	*	*k[]	*	*k[]	*
*C:	*	*C:	*	*C:	*	*C:	*	*C:	*
*omet(C)	*	*omet(C)	*	*omet(C)	*	*omet(C)	*	*omet(C)	*
*M4/2	*	*M4/2	*	*M4/2	*	*M4/2	*	*M4/2	*
=1	=1	=1	=1	=1	=1	=1	=1	=1	=1
2G	.	0r	.	0r	.	4g	Lon-	0r	.
.	.	.	.	.	.	8g	-go	.	.
.	.	.	.	.	.	8g	da	.	.
4g	.	.	.	.	.	4b	voi,	.	.
4e	.	.	.	.	.	4cc	ben	.	.
1d	.	.	.	.	.	2dd	mi-	.	.
.	.	.	.	.	.	2dd	-o,	.	.
=2	=2	=2	=2	=2	=2	=2	=2	=2	=2
2G	.	4G	Lon-	4b	Lon-	4gg	<Lon-	4dd	Lon-
.	.	8G	-go	8b	-go	8gg	-go	8dd	-go
.	.	8G	da	8b	da	8gg	da	8dd	da
4B	.	4B	voi,	4dd	voi,	4dd	voi,	4b	voi,
4c	.	4c	ben	4cc	ben	4ee	ben	4g	ben
1d	.	1d	mi-	1a	mi-	4ff#X	mi-	1dd	mi-
.	.	.	.	.	.	2gg	.	.	.
.	.	.	.	.	.	4ff#i	.	.	.
=3	=3	=3	=3	=3	=3	=3	=3	=3	=3
1G	.	1G	-o,	1b	-o,	1gg	-o,>	1dd	-o,
8GL	.	8G	Non	8b	Non	8gg	Non	8dd	Non
8cJ	.	8c	ho	8g	ho	8ee	ho	8cc	ho
2F	.	4.F	vi-	4.a	vi-	4.ff	vi-	4.cc	vi-
.	.	8F	-ta	8a	-ta	8ff	-ta	8cc	-ta
4A	.	4A	né	4e	né	4cc	né	4cc	né
=4	=4	=4	=4	=4	=4	=4	=4	=4	=4
2G	.	2G	co-	2g	co-	2dd	co-	2b	co-
2c	.	2c	-re,	2g	-re,	2ee	-re,	2cc	-re,
8fL	.	8f	Non	8a	Non	8aa	Non	8cc	Non
8eJ	.	8e	ho	8a	ho	8gg	<ho	8cc	<ho
4.d	.	4.d	vi-	4.a	vi-	4.ff	vi-	4.dd	vi-
8c	.	8c	-ta	8e	-ta	8ee	-ta	8g	-ta
4B	.	4B	né	4g	né	4dd	né	4b	né
=5	=5	=5	=5	=5	=5	=5	=5	=5	=5
1D	.	8dL	co-	4f#X	co-	1dd	co-	1a	co-
.	.	16c	.	.	.	.	.	.	.
.	.	16B	.	.	.	.	.	.	.
.	.	16A	.	2g	.	.	.	.	.
.	.	16G	.	.	.	.	.	.	.
.	.	16F	.	.	.	.	.	.	.
.	.	16EJ	.	.	.	.	.	.	.
.	.	2D	.	.	.	.	.	.	.
.	.	.	.	4f#i	.	.	.	.	.
1G	.	1G	-re	1g	-re	1dd	-re>	1b	-re>
=6:|!|:	=6:|!|:	=6:|!|:	=6:|!|:	=6:|!|:	=6:|!|:	=6:|!|:	=6:|!|:	=6:|!|:	=6:|!|:
2g	.	0r	.	4r	.	4r	.	4r	.
.	.	.	.	4g	e	4dd	e	4b	e
4f#X	.	.	.	4f#X	non	4dd	non	4a	non
4g	.	.	.	4g	son	4dd	son	4b	son
2c	.	.	.	2c	i-	2ee	i-	2cc	i-
2g	.	.	.	2g	-o,	2dd	-o,	2b	-o,
=7	=7	=7	=7	=7	=7	=7	=7	=7	=7
1G	.	1G	Non	2r	.	2r	.	2r	.
.	.	.	.	2g	Non	2dd	Non	2b	Non
2A	7	2A	son,	2g	son,	2cc#X	son,	2a	son,
2D	8	2D	oi-	2f	oi-	2dd	oi-	2a	oi-
=8	=8	=8	=8	=8	=8	=8	=8	=8	=8
1A	5	1A	-mé,	1e	-mé,	1cc#i	-mé,	1a	-mé,
4d	.	4d	quel	4f	quel	2r	.	2r	.
8cL	.	8c	ch'al-	8e	ch'al-	.	.	.	.
8BJ	.	8B	-tro	8d	-tro	.	.	.	.
4A	.	4A	vol-	8c#XL	vol-	4aa	quel	4ff	quel
.	.	.	.	8d	.	.	.	.	.
4D	.	4D	-ta	8eJ	.	8gg	ch'al-	8ee	ch'al-
.	.	.	.	8f#XJL	-ta	8ff	-tro	8dd	-tro
=9	=9	=9	=9	=9	=9	=9	=9	=9	=9
1E	.	1E	fu-	4g#X	fu-	4ee	vol-	4cc	vol-
.	.	.	.	2a	.	4cc	-ta	4ee	-ta
.	.	.	.	.	.	2b	fu-	2ee	fu-
.	.	.	.	4g#i	.	.	.	.	.
1A	.	1A	-i,	8a	-i,	8a	-i,	2ee	-i,
.	.	.	.	8a	quel	8cc	quel	.	.
.	.	.	.	8a	ch'al-	8cc	ch'al-	.	.
.	.	.	.	8b	-tro	8dd	-tro	.	.
.	.	.	.	4cc	vol-	4ee	vol-	8r	.
.	.	.	.	.	.	.	.	8ee	quel
.	.	.	.	4a	-ta	4cc	-ta	8ee	ch'al-
.	.	.	.	.	.	.	.	8ff	-tro
=10	=10	=10	=10	=10	=10	=10	=10	=10	=10
1G	.	1r	.	1g	fu-	4b	fu-	4.gg	vol-
.	.	.	.	.	.	2cc	.	.	.
.	.	.	.	.	.	.	.	8cc	-ta
.	.	.	.	.	.	.	.	2dd	fu-
.	.	.	.	.	.	4b	.	.	.
4c	.	8r	.	2c	-i,	2cc	-i,	8ee	-i,
.	.	8c	quel	.	.	.	.	8ee	quel
8BL	.	8B	ch'al-	.	.	.	.	8dd	ch'al-
8AJ	.	8A	-tro	.	.	.	.	8cc	-tro
4G	.	4G	vol-	8r	.	8r	.	4gg	vol-
.	.	.	.	8g	quel	8ee	quel	.	.
4c	.	4c	-ta	8g	<ch'al-	8dd	ch'al-	4ee	-ta
.	.	.	.	8a	-tro	8cc	-tro	.	.
=11	=11	=11	=11	=11	=11	=11	=11	=11	=11
1G	.	1G	fu-	8b	vol-	4gg	vol-	(>4dd	fu-
.	.	.	.	8b	-ta	.	.	.	.
.	.	.	.	4cc	fu-	4ee	-ta	4cc)	.
.	.	.	.	8g	-i,>	(>4dd	fu-	8b	-i,
.	.	.	.	8e	quel	.	.	8gg	quel
.	.	.	.	8d	<ch'al-	4cc)	.	8ff	<ch'al-
.	.	.	.	8c	-tro	.	.	8ee	-tro
2G	.	2G	-i,	8d	vol-	8b	-i,	4gg	vol-
.	.	.	.	8B	-ta	8ee	<quel	.	.
.	.	.	.	4c	fu-	8dd	ch'al-	4ee	-ta,
.	.	.	.	.	.	8cc	-tro	.	.
4G	.	4G	<quel	8G	-i,>	4.gg	vol-	8dd	al-
.	.	.	.	8b	quel	.	.	8dd	-tro
8F#XL	.	8F#X	ch'al-	8a	ch'al-	.	.	8dd	vol-
8EJ	.	8E	-tro	8g	-tro	8gg	-ta	8cc#X	-ta
=12	=12	=12	=12	=12	=12	=12	=12	=12	=12
4.D	.	4.D	vol-	4a	vol-	4ff#X	fu-	1dd	fu-
.	.	.	.	4b	-ta	2gg	.	.	.
8C#X	.	8C#X	-ta	.	.	.	.	.	.
2D	.	2D	fu-	2a	fu-	.	.	.	.
.	.	.	.	.	.	4ff#i	.	.	.
1Gl	.	1Gl	-i.>	1bl	-i.	1ggl	-i.>	1ddl	-i.
=:|!	=:|!	=:|!	=:|!	=:|!	=:|!	=:|!	=:|!	=:|!	=:|!
*-	*-	*-	*-	*-	*-	*-	*-	*-	*-
!!!system-decoration: [*]
!!!RDF**kern: > = above
!!!RDF**kern: i = editorial accidental
!!!RDF**kern: l = terminal long
!!!ENC: Emiliano Ricciardi
!!!END: 2019/01/30
!!!EED: Schleuse, Paul
!!!EEV: 2019/01/30
!!!YEC: Copyright 2018 Emiliano Ricciardi, All Rights Reserved
!!!ONB: Translated from MusicXML on 2019/01/30 and edited by Craig Stuart Sapp
!!@@BEGIN:	VERSEDATA
!!@SOLERTI:	59
!!@CATALOGNUM:	Trm0059
!!@LAST_MODIFIED: 2020/07/12
!!@TITLE:		Lunge da voi, ben mio
!!@GENRE:		madrigale
!!@MANUSRC:	C, V<sub>8</sub>
!!@PRINTSRC:	27, 48, 70, 141, 145, 166, 169
!!@@BEGIN:	VERSES
!!@ABOUTIT:	Lontano da la sua donna dice di non esser più quel ch'egli era ma l'ombra sua.
!!@ABOUTEN:	Away from his lady, he says that he is no longer what he used to be, but only its shadow.
!!@EDITOR:	Solerti, Angelo
!!@EDITION_TITLE: Le Rime di Torquato Tasso
!!@EDITION_LOC:	Bologna
!!@EDITION_PUB:	Romagnoli-Dall’Acqua
!!@EDITION_DATE:  1898-1902
!!@EDITION_VOL:	2
!!@EDITION_PAGE:  87
!!@TRANSLATOR:	Maria Pastore Passaro; adapted by Emiliano Ricciardi and Amyrose McCue Gill
!!@TRANSLATION_TITLE: Rhymes of Love
!!@TRANSLATION_LOC: Mineola, NY
!!@TRANSLATION_PUB: Legas
!!@TRANSLATION_DATE: 2011
!!@TRANSLATION_PAGE: 66-67
!!@VERSE:
!!	Lunge da voi, ben mio,
!!	Non ho vita né core e non son io.
!!	Non sono, oimé!, non sono
!!	Quel ch'altra volta fui, ma un'ombra mesta,
!!	Un lagrimevol suono,
!!	Una voce dolente; e ciò mi resta
!!	Solo per vostro dono:
!!	Ma resta il male onde morir desio.
!!@TVERSE:
!!	Far from you, my dear,
!!	I have no life nor heart, and am not myself.
!!	I am not, oh dear!, I am not
!!	What I once was, but [now] a miserable shadow,
!!	A tearful tone,
!!	An aching voice; and this is all that remains to me
!!	Only because of your gift;
!!	But the ill remains so that I wish to die.
!!@@END:		VERSES
!!@OTHER_CRIT_ED:   Torquato Tasso, <i>Rime d’amore (secondo il codice
!!		Chigiano L VIII 302)</i>, eds. Franco Gavazzeni and
!!		Vercingetorige Martignone, vol. 4 of <i>Edizione
!!		Nazionale delle opere di Torquato Tasso</i>
!!		(Alessandria: Edizioni Dell’Orso, 2004), 43.
!!@ATTRIBUTION_ABOUT:	Secure
!!		<br>
!!		This poem appears in the autograph Chigiano
!!		L.VIII.302 (Biblioteca Vaticana, Rome), compiled
!!		around 1584&ndash;85 (see Literary Sources).
!!@DATING:
!!@DEDICATEE:	Bendidio, Lucrezia
!!@COMMENTARY:
!!@@END:		VERSEDATA
!!@@BEGIN:	SETTING
!!@CATALOGNUM:	Trm0059e
!!@RIMETITLE:	Lunge da voi, ben mio
!!@SOLERTI:	59
!!@COMPOSER:	Dering, Richard
!!@PRINCEPSTITLE:	Canzonette a quattro voci con il basso continuo
!!@PRINCEPSLOC:	Anversa
!!@NORMLOC:	Antwerp
!!@NORMPUB:	Pierre Phalèse
!!@NORMPUBSHORT:	Phalèse
!!@PRINCEPSPUB:	Phalesio
!!@PRINCEPSYEAR:	1620
!!@PRINCEPSRISM:	1620-16
!!@REPRINTS:	
!!@OVOICES:	4 + bc
!!@EXTANTVOICES:	4+ bc
!!@PARTBOOKS:	
!!@EXTPARTBOOKS:	
!!@OCLEFS:	G2,G2,C2,C4,C4
!!@OMENSURATION:	C
!!@OKEYSIG:	-
!!@FINAL:	G
!!@TIMPEDITOR:	Schleuse, Paul
!!@NOTE:		
!!@@END:		SETTING
